docs/static/images/partners/kiwi.svg

<?xml version="1.0" encoding="UTF-8" standalone="no"?>
<svg width="278px" height="138px" viewBox="0 0 278 138" version="1.1" xmlns="http://www.w3.org/2000/svg" xmlns:xlink="http://www.w3.org/1999/xlink">
    <!-- Generator: Sketch 3.7.2 (28276) - http://www.bohemiancoding.com/sketch -->
    <title>logo@1x</title>
    <desc>Created with Sketch.</desc>
    <defs></defs>
    <g id="UI-Kit" stroke="none" stroke-width="1" fill="none" fill-rule="evenodd">
        <g id="UI-Header" transform="translate(-516.000000, -3804.000000)">
            <g id="Desktop" transform="translate(-1.000000, 228.000000)">
                <g id="Normal" transform="translate(0.000000, 66.000000)">
                    <g id="logo" transform="translate(517.000000, 3510.000000)">
                        <path d="M120.44677,57.0267336 C120.587919,56.6728732 120.729069,56.1081603 120.729069,55.7551131 C120.729069,53.8479146 119.245899,52.9292251 117.692212,52.9292251 C116.350075,52.9292251 115.50225,53.5655 115.006892,55.0487863 L108.7911,74.0515326 L101.655922,54.9072886 C101.232474,53.7064169 100.455515,52.9292251 98.9714155,52.9292251 C97.4882454,52.9292251 96.7111697,53.7064169 96.287606,54.9072886 L89.2232926,74.0515326 L83.0068037,55.0487863 C82.5121426,53.5655 81.6643181,52.9292251 80.322181,52.9292251 C78.7677974,52.9292251 77.2845112,53.8479146 77.2845112,55.7551131 C77.2845112,56.1081603 77.4257765,56.6728732 77.5668095,57.0267336 L86.2556746,82.8110303 C86.53867,83.9404562 87.4568948,84.7189259 89.0113946,84.7189259 C90.5654297,84.7189259 91.413138,83.8712176 91.8367017,82.7402815 L98.9714155,63.1721252 L106.176994,82.7402815 C106.601139,83.9404562 107.519015,84.7189259 109.003463,84.7189259 C110.486633,84.7189259 111.334458,84.0127153 111.758021,82.8110303 L120.44677,57.0267336 Z M55.6695174,78.8227236 L45.3890937,68.6053814 L55.6695174,58.3875744 C56.9684384,57.0886534 57.0691597,55.0900274 55.6695174,53.691663 C54.2713854,52.2930663 52.2732241,52.3926258 50.9746516,53.6923601 L38.4667427,66.1999204 C37.7977071,66.8693045 37.4740515,67.7354842 37.4884568,68.6045682 C37.4740515,69.4731875 37.7970101,70.3402965 38.4667427,71.0096806 L50.9746516,83.517241 C52.2732241,84.8162781 54.2713854,84.9165347 55.6695174,83.517241 C57.0683465,82.1195736 56.9684384,80.1217608 55.6695174,78.8227236 L55.6695174,78.8227236 Z M35.9125814,81.159643 L35.9125814,56.010111 C35.9125814,54.1736613 34.5005087,52.6904913 32.5926131,52.6904913 C30.6850661,52.6904913 29.2726449,54.1736613 29.2726449,56.010111 L29.2726449,81.159643 C29.2726449,82.9953956 30.6139687,84.4786818 32.5926131,84.4786818 C34.5705605,84.4786818 35.9125814,82.9953956 35.9125814,81.159643 L35.9125814,81.159643 Z M64.0184627,56.2497742 L64.0184627,81.3970989 C64.0184627,83.2342455 65.3609483,84.7189259 67.3388956,84.7189259 C69.3170753,84.7189259 70.6596771,83.2342455 70.6596771,81.3970989 L70.6596771,56.2497742 C70.6596771,54.4133245 69.2463265,52.9292251 67.3388956,52.9292251 C65.4316971,52.9292251 64.0184627,54.4133245 64.0184627,56.2497742 L64.0184627,56.2497742 Z M127.467635,56.2497742 L127.467635,81.3970989 C127.467635,83.2342455 128.810469,84.7189259 130.788417,84.7189259 C132.766248,84.7189259 134.108385,83.2342455 134.108385,81.3970989 L134.108385,56.2497742 C134.108385,54.4133245 132.695151,52.9292251 130.788417,52.9292251 C128.88087,52.9292251 127.467635,54.4133245 127.467635,56.2497742 L127.467635,56.2497742 Z M127.467635,56.2497742 L127.467635,81.3970989 C127.467635,83.2342455 128.810469,84.7189259 130.788417,84.7189259 C132.766248,84.7189259 134.108385,83.2342455 134.108385,81.3970989 L134.108385,56.2497742 C134.108385,54.4133245 132.695151,52.9292251 130.788417,52.9292251 C128.88087,52.9292251 127.467635,54.4133245 127.467635,56.2497742 L127.467635,56.2497742 Z M127.467635,56.2497742 L127.467635,81.3970989 C127.467635,83.2342455 128.810469,84.7189259 130.788417,84.7189259 C132.766248,84.7189259 134.108385,83.2342455 134.108385,81.3970989 L134.108385,56.2497742 C134.108385,54.4133245 132.695151,52.9292251 130.788417,52.9292251 C128.88087,52.9292251 127.467635,54.4133245 127.467635,56.2497742 Z M194.668193,58.7099754 C197.642665,58.7099754 199.377929,59.8455584 201.038959,61.1124159 C201.702418,61.5695534 202.350659,61.7916746 203.02074,61.7916746 C204.633442,61.7916746 205.849532,60.5562997 205.849532,58.9180398 C205.849532,58.1536269 205.539701,57.4715801 204.902845,56.8337949 C202.532584,54.3811681 198.70657,52.9168179 194.668193,52.9168179 C185.507437,52.9168179 179.109487,59.4067761 179.109487,68.6989232 C179.109487,77.9918835 185.507437,84.4818417 194.668193,84.4818417 C198.706919,84.4818417 202.526892,83.0230678 204.886116,80.5805479 C205.534357,79.9318425 205.849532,79.2454974 205.849532,78.4816654 C205.849532,76.8428246 204.633442,75.6068689 203.02074,75.6068689 C202.348916,75.6068689 201.685921,75.8399102 200.991444,76.3209792 C199.422074,77.5191789 197.641155,78.6891489 194.668193,78.6891489 C189.180568,78.6891489 185.347932,74.5810686 185.347932,68.6989232 C185.347932,62.8174748 189.180568,58.7099754 194.668193,58.7099754 Z M225.582246,52.9168411 C216.661385,52.9168411 209.93432,59.7017605 209.93432,68.6989464 C209.93432,77.6965971 216.661385,84.4818649 225.582246,84.4818649 C234.502642,84.4818649 241.229476,77.6965971 241.229476,68.6989464 C241.229476,59.7017605 234.502642,52.9168411 225.582246,52.9168411 Z M225.582246,78.8454237 C219.392361,78.8454237 216.153713,73.7410509 216.153713,68.6989464 C216.153713,62.0385636 220.89679,58.5538633 225.582246,58.5538633 C231.774107,58.5538633 235.013916,63.657539 235.013916,68.6989464 C235.013916,75.3602586 230.269212,78.8454237 225.582246,78.8454237 Z M275.008845,53.0955952 C273.85909,53.0955952 272.848508,53.7760156 272.305519,54.9155484 L262.634999,75.1649383 L262.55031,74.9867302 L252.857136,54.8751205 C252.188101,53.6610052 251.321573,53.0955952 250.129878,53.0955952 C248.493593,53.0955952 247.211866,54.3777875 247.211866,56.014421 L247.211866,81.3394891 C247.211866,82.9459178 248.548194,84.3032735 250.129878,84.3032735 C251.736191,84.3032735 253.093314,82.9459178 253.093314,81.3394891 L253.093314,67.8832668 L260.073287,82.6750043 C260.630797,83.7857265 261.445512,84.3032735 262.63709,84.3032735 C263.772092,84.3032735 264.708324,83.7044059 265.206006,82.6602505 L272.09002,67.8861711 L272.09002,81.3846801 C272.09002,82.9937808 273.399396,84.3032735 275.008845,84.3032735 C276.670107,84.3032735 277.971468,83.0213136 277.971468,81.3846801 L277.971468,56.0591473 C277.971468,54.2865923 276.78082,53.0955952 275.008845,53.0955952 Z" id="Combined-Shape" fill="#30363D"></path>
                        <path d="M149.93431,97.8761094 C149.071732,97.2398344 148.050695,96.9030513 146.981795,96.9030513 C145.405687,96.9030513 143.906137,97.6594483 142.971299,98.9266543 C136.728323,107.387706 127.912017,114.480365 117.476039,119.438129 C106.624629,124.597102 94.2218557,127.323315 81.572333,127.323315 C62.2706756,127.323315 44.1689606,121.116003 30.6015616,109.843353 C24.0887174,104.438791 18.9869005,98.1651458 15.4372598,91.1971391 C11.8042076,84.0623092 9.9609038,76.4933438 9.95892888,68.7006309 C9.9609038,60.9090797 11.8042076,53.3394174 15.4372598,46.2023802 C20.779437,35.7105231 29.6864734,26.7537651 41.1957663,20.3001687 C53.1230467,13.6100459 67.0924015,10.0739974 81.5984717,10.0739974 C94.2461357,10.0739974 106.67923,12.8142665 117.553758,17.9982172 C128.011577,22.9817709 136.832646,30.1047513 143.063191,38.5974015 C143.997913,39.870997 145.500019,40.6309953 147.081703,40.6309953 C148.14584,40.6309953 149.163508,40.2971165 150.023879,39.6657208 C152.236959,38.0411692 152.715821,34.9186936 151.091037,32.7056138 C143.885109,22.8911566 133.770231,14.6966042 121.839233,9.00800159 C109.63465,3.19149344 95.7194312,0.116532303 81.5984717,0.115719097 C59.9787149,0.12013364 39.608506,7.14390297 24.2402059,19.8932176 C16.6805344,26.1688382 10.7334487,33.499302 6.56379724,41.6818888 C2.20652771,50.2273973 -0.00225374007,59.3174048 -4.64688661e-05,68.7006309 C-0.00225374007,78.0835085 2.20652771,87.1732837 6.56379724,95.7176305 C12.8123497,107.971471 23.1034613,118.368415 36.3250158,125.784033 C49.736628,133.30502 65.3917571,137.281593 81.5984717,137.282987 C95.6810944,137.282987 109.56576,134.22278 121.751058,128.433456 C133.659635,122.770992 143.76824,114.613034 150.984042,104.840515 C152.614054,102.631966 152.143324,99.5076313 149.93431,97.8761094" id="Fill-5" fill="#0097A9"></path>
                        <path d="M157.898006,63.2152832 C154.874741,63.2152832 152.415028,65.675345 152.415028,68.6994227 C152.415028,71.7232681 154.874741,74.1834461 157.898006,74.1834461 C160.92127,74.1834461 163.380983,71.7232681 163.380983,68.6994227 C163.380983,65.675345 160.92127,63.2152832 157.898006,63.2152832" id="Fill-3" fill="#0097A9"></path>
                    </g>
                </g>
            </g>
        </g>
    </g>
</svg>

<?xml version="1.0" encoding="UTF-8" standalone="no"?>
<svg
   xmlns:dc="http://purl.org/dc/elements/1.1/"
   xmlns:cc="http://creativecommons.org/ns#"
   xmlns:rdf="http://www.w3.org/1999/02/22-rdf-syntax-ns#"
   xmlns:svg="http://www.w3.org/2000/svg"
   xmlns="http://www.w3.org/2000/svg"
   xmlns:sodipodi="http://sodipodi.sourceforge.net/DTD/sodipodi-0.dtd"
   xmlns:inkscape="http://www.inkscape.org/namespaces/inkscape"
   width="390"
   height="194"
   viewBox="0 0 390 194"
   version="1.1"
   id="svg16"
   sodipodi:docname="kiwi.svg"
   inkscape:version="0.92.4 (unknown)">
  <metadata
     id="metadata20">
    <rdf:RDF>
      <cc:Work
         rdf:about="">
        <dc:format>image/svg+xml</dc:format>
        <dc:type
           rdf:resource="http://purl.org/dc/dcmitype/StillImage" />
        <dc:title>logo@1x</dc:title>
      </cc:Work>
    </rdf:RDF>
  </metadata>
  <sodipodi:namedview
     pagecolor="#ffffff"
     bordercolor="#666666"
     borderopacity="1"
     objecttolerance="10"
     gridtolerance="10"
     guidetolerance="10"
     inkscape:pageopacity="0"
     inkscape:pageshadow="2"
     inkscape:window-width="1920"
     inkscape:window-height="1016"
     id="namedview18"
     showgrid="false"
     inkscape:zoom="1.1870504"
     inkscape:cx="140.68485"
     inkscape:cy="69"
     inkscape:window-x="0"
     inkscape:window-y="27"
     inkscape:window-maximized="1"
     inkscape:current-layer="svg16" />
  <!-- Generator: Sketch 3.7.2 (28276) - http://www.bohemiancoding.com/sketch -->
  <title
     id="title2">logo@1x</title>
  <desc
     id="desc4">Created with Sketch.</desc>
  <defs
     id="defs6" />
  <g
     id="UI-Kit"
     style="fill:none;fill-rule:evenodd;stroke:none;stroke-width:1"
     transform="matrix(1.4070412,0,0,1.4070412,1.9587448e-5,0.12017418)">
    <g
       id="UI-Header"
       transform="translate(-516,-3804)">
      <g
         id="Desktop"
         transform="translate(-1,228)">
        <g
           id="Normal"
           transform="translate(0,66)">
          <g
             id="logo"
             transform="translate(517,3510)">
            <path
               d="m 120.44677,57.026734 c 0.14115,-0.353861 0.2823,-0.918574 0.2823,-1.271621 0,-1.907198 -1.48317,-2.825888 -3.03686,-2.825888 -1.34213,0 -2.18996,0.636275 -2.68532,2.119561 l -6.21579,19.002747 -7.13518,-19.144244 c -0.42345,-1.200872 -1.2004,-1.978064 -2.684504,-1.978064 -1.483171,0 -2.260246,0.777192 -2.68381,1.978064 L 89.223293,74.051533 83.006804,55.048786 c -0.494661,-1.483286 -1.342486,-2.119561 -2.684623,-2.119561 -1.554384,0 -3.03767,0.91869 -3.03767,2.825888 0,0.353047 0.141265,0.91776 0.282299,1.271621 l 8.688865,25.784296 c 0.282995,1.129426 1.20122,1.907896 2.75572,1.907896 1.554035,0 2.401743,-0.847708 2.825307,-1.978645 l 7.134714,-19.568156 7.205574,19.568156 c 0.42415,1.200175 1.34202,1.978645 2.82647,1.978645 1.48317,0 2.331,-0.706211 2.75456,-1.907896 z M 55.669517,78.822724 45.389094,68.605381 55.669517,58.387574 c 1.298921,-1.298921 1.399643,-3.297547 0,-4.695911 -1.398132,-1.398597 -3.396293,-1.299037 -4.694865,6.97e-4 L 38.466743,66.19992 c -0.669036,0.669384 -0.992691,1.535564 -0.978286,2.404648 -0.0144,0.868619 0.308553,1.735728 0.978286,2.405113 l 12.507909,12.50756 c 1.298572,1.299037 3.296733,1.399294 4.694865,0 1.398829,-1.397667 1.298921,-3.39548 0,-4.694517 z M 35.912581,81.159643 V 56.010111 c 0,-1.83645 -1.412072,-3.31962 -3.319968,-3.31962 -1.907547,0 -3.319968,1.48317 -3.319968,3.31962 v 25.149532 c 0,1.835753 1.341324,3.319039 3.319968,3.319039 1.977947,0 3.319968,-1.483286 3.319968,-3.319039 z M 64.018463,56.249774 v 25.147325 c 0,1.837146 1.342485,3.321827 3.320433,3.321827 1.978179,0 3.320781,-1.484681 3.320781,-3.321827 V 56.249774 c 0,-1.836449 -1.413351,-3.320549 -3.320781,-3.320549 -1.907199,0 -3.320433,1.4841 -3.320433,3.320549 z m 63.449177,0 v 25.147325 c 0,1.837146 1.34283,3.321827 3.32078,3.321827 1.97783,0 3.31996,-1.484681 3.31996,-3.321827 V 56.249774 c 0,-1.836449 -1.41323,-3.320549 -3.31996,-3.320549 -1.90755,0 -3.32078,1.4841 -3.32078,3.320549 z m 0,0 v 25.147325 c 0,1.837146 1.34283,3.321827 3.32078,3.321827 1.97783,0 3.31996,-1.484681 3.31996,-3.321827 V 56.249774 c 0,-1.836449 -1.41323,-3.320549 -3.31996,-3.320549 -1.90755,0 -3.32078,1.4841 -3.32078,3.320549 z m 0,0 v 25.147325 c 0,1.837146 1.34283,3.321827 3.32078,3.321827 1.97783,0 3.31996,-1.484681 3.31996,-3.321827 V 56.249774 c 0,-1.836449 -1.41323,-3.320549 -3.31996,-3.320549 -1.90755,0 -3.32078,1.4841 -3.32078,3.320549 z m 67.20055,2.460201 c 2.97447,0 4.70974,1.135583 6.37077,2.402441 0.66346,0.457137 1.3117,0.679259 1.98178,0.679259 1.6127,0 2.82879,-1.235375 2.82879,-2.873635 0,-0.764413 -0.30983,-1.44646 -0.94668,-2.084245 -2.37027,-2.452627 -6.19628,-3.916977 -10.23466,-3.916977 -9.16075,0 -15.5587,6.489958 -15.5587,15.782105 0,9.29296 6.39795,15.782919 15.5587,15.782919 4.03873,0 7.8587,-1.458774 10.21793,-3.901294 0.64824,-0.648705 0.96341,-1.335051 0.96341,-2.098883 0,-1.63884 -1.21609,-2.874796 -2.82879,-2.874796 -0.67182,0 -1.33482,0.233041 -2.0293,0.71411 -1.56937,1.1982 -3.35029,2.36817 -6.32325,2.36817 -5.48762,0 -9.32026,-4.10808 -9.32026,-9.990226 0,-5.881448 3.83264,-9.988948 9.32026,-9.988948 z m 30.91406,-5.793134 c -8.92087,0 -15.64793,6.784919 -15.64793,15.782105 0,8.997651 6.72706,15.782919 15.64793,15.782919 8.92039,0 15.64723,-6.785268 15.64723,-15.782919 0,-8.997186 -6.72684,-15.782105 -15.64723,-15.782105 z m 0,25.928583 c -6.18989,0 -9.42854,-5.104373 -9.42854,-10.146478 0,-6.660382 4.74308,-10.145083 9.42854,-10.145083 6.19186,0 9.43167,5.103676 9.43167,10.145083 0,6.661313 -4.74471,10.146478 -9.43167,10.146478 z m 49.42659,-25.749829 c -1.14975,0 -2.16033,0.680421 -2.70332,1.819953 l -9.67052,20.24939 -0.0847,-0.178208 -9.69317,-20.111609 c -0.66904,-1.214116 -1.53557,-1.779526 -2.72726,-1.779526 -1.63629,0 -2.91801,1.282192 -2.91801,2.918826 v 25.325068 c 0,1.606429 1.33632,2.963785 2.91801,2.963785 1.60631,0 2.96343,-1.357356 2.96343,-2.963785 V 67.883267 l 6.97998,14.791737 c 0.55751,1.110722 1.37222,1.62827 2.5638,1.62827 1.135,0 2.07123,-0.598868 2.56892,-1.643023 l 6.88401,-14.77408 V 81.38468 c 0,1.609101 1.30938,2.918594 2.91882,2.918594 1.66127,0 2.96263,-1.28196 2.96263,-2.918594 V 56.059147 c 0,-1.772555 -1.19065,-2.963552 -2.96263,-2.963552 z"
               id="Combined-Shape"
               inkscape:connector-curvature="0"
               style="fill:#30363d" />
            <path
               d="m 149.93431,97.876109 c -0.86258,-0.636275 -1.88362,-0.973058 -2.95252,-0.973058 -1.5761,0 -3.07565,0.756397 -4.01049,2.023603 -6.24298,8.461056 -15.05928,15.553716 -25.49526,20.511476 -10.85141,5.15897 -23.254184,7.88518 -35.903707,7.88518 -19.301657,0 -37.403372,-6.20731 -50.970771,-17.47996 C 24.088717,104.43879 18.9869,98.165146 15.43726,91.197139 11.804208,84.062309 9.9609038,76.493344 9.9589289,68.700631 9.9609038,60.90908 11.804208,53.339417 15.43726,46.20238 20.779437,35.710523 29.686473,26.753765 41.195766,20.300169 53.123047,13.610046 67.092401,10.073997 81.598472,10.073997 c 12.647664,0 25.080758,2.74027 35.955288,7.92422 10.45782,4.983554 19.27889,12.106534 25.50943,20.599184 0.93472,1.273596 2.43683,2.033594 4.01851,2.033594 1.06414,0 2.08181,-0.333878 2.94218,-0.965274 2.21308,-1.624552 2.69194,-4.747027 1.06716,-6.960107 C 143.88511,22.891157 133.77023,14.696604 121.83923,9.0080016 109.63465,3.1914934 95.719431,0.1165323 81.598472,0.1157191 59.978715,0.12013364 39.608506,7.143903 24.240206,19.893218 16.680534,26.168838 10.733449,33.499302 6.5637972,41.681889 2.2065277,50.227397 -0.00225374,59.317405 -4.6468866e-5,68.700631 -0.00225374,78.083508 2.2065277,87.173284 6.5637972,95.71763 c 6.2485528,12.25384 16.5396638,22.65079 29.7612188,30.0664 13.411612,7.52099 29.066741,11.49756 45.273456,11.49896 14.082622,0 27.967288,-3.06021 40.152588,-8.84953 11.90857,-5.66247 22.01718,-13.82043 29.23298,-23.59295 1.63001,-2.20854 1.15928,-5.332879 -1.04973,-6.964401"
               id="Fill-5"
               inkscape:connector-curvature="0"
               style="fill:#0097a9" />
            <path
               d="m 157.89801,63.215283 c -3.02327,0 -5.48298,2.460062 -5.48298,5.48414 0,3.023845 2.45971,5.484023 5.48298,5.484023 3.02326,0 5.48297,-2.460178 5.48297,-5.484023 0,-3.024078 -2.45971,-5.48414 -5.48297,-5.48414"
               id="Fill-3"
               inkscape:connector-curvature="0"
               style="fill:#0097a9" />
          </g>
        </g>
      </g>
    </g>
  </g>
</svg>
